static/img/investor-sequoia.svg

<svg height="51" viewBox="0 0 40 51" width="40" xmlns="http://www.w3.org/2000/svg" xmlns:xlink="http://www.w3.org/1999/xlink"><mask id="a" fill="#fff"><path d="m16.4118852 6.51162791h-16.40204913v-6.36495349h16.40204913 16.4020492v6.36495349z" fill="#fff" fill-rule="evenodd"/></mask><g fill="none" fill-rule="evenodd"><g fill="#848681" transform="translate(0 44.482)"><path d="m13.826933 4.94069767c-.2391803-.26372093-.3011476-.55381395-.3011476-1.75813953 0-1.20448837.0619673-1.4945814.3011476-1.75830233.1770492-.20218604.4603279-.33404651.7967213-.33404651s.6108197.13186047.7878689.33404651c.2390163.26372093.309836.55381396.309836 1.75830233 0 1.20432558-.0708197 1.4944186-.309836 1.75813953-.1770492.20218605-.4514755.33404652-.7878689.33404652s-.6196721-.13186047-.7967213-.33404652zm3.4614754 1.37151163-.6290164-1.0814186c.2963934-.54925582.292623-1.20823256.292623-2.04823256 0-1.08141861.0086885-1.8637907-.6285246-2.49688372-.442623-.43953488-.9827869-.68567442-1.6998361-.68567442-.7172131 0-1.2660656.24613954-1.7086885.68567442-.6373771.63309302-.6198361 1.41546511-.6198361 2.49688372 0 1.08125581-.017541 1.86362791.6198361 2.49672093.4426229.43953488.9914754.68567442 1.7086885.68567442.1911475 0 .3688525-.01872093.5363934-.05274419z"/><path d="m31.5988525 6.45644186h1.2150819v-6.25702325h-1.2150819z" mask="url(#a)"/><path d="m2.30180328 6.51162791c-.95606558 0-1.68213115-.20218605-2.30180328-.82632558l.79672131-.79132559c.39852459.3955814.93852459.52744186 1.52278689.52744186.72590164 0 1.11557377-.27234883 1.11557377-.77358139 0-.21976744-.06196722-.40437209-.1947541-.52744186-.12409836-.11427907-.26573771-.17581395-.55786885-.21976744l-.76131148-.10548838c-.54-.07911627-.93852459-.24613953-1.22180328-.51865116-.3009836-.29888372-.45147541-.7034186-.45147541-1.23086046 0-1.11641861.83229508-1.89895349 2.19557377-1.89895349.86754099 0 1.49622951.21097674 2.03622951.7297907l-.77901639.76479069c-.39836066-.378-.87655738-.43074418-1.29262295-.43074418-.65508197 0-.97377049.3604186-.97377049.79116279 0 .15823256.05311475.32525581.18590163.44832558.12393443.11427907.32754099.21113953.5842623.24613953l.74360656.10548838c.57557377.07911628.93852459.23734883 1.20409836.48365116.33639344.31646512.48688524.7735814.48688524 1.32739535 0 1.21327907-1.01803278 1.89895349-2.33721311 1.89895349" mask="url(#a)"/><path d="m6.39344262 6.42225581v-6.25946511h4.15213118v1.0902093h-2.92147544v1.46804651h2.48754094v1.0902093h-2.48754094v1.5207907h2.92147544v1.0902093z"/><path d="m21.0080328 6.475c-1.292459 0-2.3195082-.87027907-2.3195082-2.19783721v-4.11437209h1.2306557v4.0704186c0 .721.4249181 1.1515814 1.0888525 1.1515814s1.0977049-.4305814 1.0977049-1.1515814v-4.0704186h1.2218033v4.11437209c0 1.32755814-1.0270492 2.19783721-2.3195082 2.19783721"/><path d="m28.3621802 1.42425581c-.1770492-.20218604-.4514754-.33404651-.7878689-.33404651-.3363934 0-.6196721.13186047-.7967213.33404651-.2391803.26372093-.3011475.55381396-.3011475 1.75830233 0 1.20432558.0619672 1.4944186.3011475 1.75813953.1770492.20218605.4603279.33404652.7967213.33404652.3363935 0 .6108197-.13186047.7878689-.33404652.2391803-.26372093.3098361-.55381395.3098361-1.75813953 0-1.20448837-.0706558-1.4945814-.3098361-1.75830233zm.9119672 4.25502326c-.4426229.43953488-.9827869.68567442-1.6998361.68567442-.7170491 0-1.2659016-.24613954-1.7086885-.68567442-.637377-.63309302-.6196721-1.41546512-.6196721-2.49672093 0-1.08141861-.0177049-1.8637907.6196721-2.49688372.4427869-.43953488.9916394-.68567442 1.7086885-.68567442.7170492 0 1.2572132.24613954 1.6998361.68567442.6373771.63309302.6285246 1.41546511.6285246 2.49688372 0 1.08125581.0088525 1.86362791-.6285246 2.49672093z"/><path d="m37.232623 2.009-.7968853 2.27695349h1.5670492zm1.4695081 4.41325581-.3718032-1.1076279h-2.2398361l-.3806557 1.1076279h-1.2836066l2.2929508-6.25946511h.9649181l2.3018032 6.25946511z"/></g><g fill="#4baf53"><path d="m29.387 9.838h9.613v-9.613h-9.613z"/><path d="m5.356 30.471v-30.246h-4.806v35.052z"/><path d="m8.754 33.869-4.806 4.807h35.052v-4.807z"/><path d="m14.968 20.858v-20.633h-4.806v25.44z"/><path d="m18.367 24.257-4.806 4.806h25.439v-4.806z"/><path d="m24.581 11.246v-11.021h-4.806v15.827z"/><path d="m27.98 14.644-4.807 4.807h15.827v-4.807z"/></g></g></svg>

<?xml version="1.0" encoding="UTF-8"?>
<svg width="40px" height="51px" viewBox="0 0 40 51" version="1.1" xmlns="http://www.w3.org/2000/svg" xmlns:xlink="http://www.w3.org/1999/xlink">
    <!-- Generator: Sketch 42 (36781) - http://www.bohemiancoding.com/sketch -->
    <title>Group 2</title>
    <desc>Created with Sketch.</desc>
    <defs>
        <polygon id="path-1" points="16.4118852 6.51162791 0.00983606557 6.51162791 0.00983606557 0.146674419 16.4118852 0.146674419 32.8139344 0.146674419 32.8139344 6.51162791 16.4118852 6.51162791"></polygon>
    </defs>
    <g id="Page-1" stroke="none" stroke-width="1" fill="none" fill-rule="evenodd">
        <g id="Group-2">
            <g id="Group" transform="translate(0.000000, 44.482000)">
                <path d="M13.826933,4.94069767 C13.5877527,4.67697674 13.5257854,4.38688372 13.5257854,3.18255814 C13.5257854,1.97806977 13.5877527,1.68797674 13.826933,1.42425581 C14.0039822,1.22206977 14.2872609,1.0902093 14.6236543,1.0902093 C14.9600477,1.0902093 15.234474,1.22206977 15.4115232,1.42425581 C15.6505395,1.68797674 15.7213592,1.97806977 15.7213592,3.18255814 C15.7213592,4.38688372 15.6505395,4.67697674 15.4115232,4.94069767 C15.234474,5.14288372 14.9600477,5.27474419 14.6236543,5.27474419 C14.2872609,5.27474419 14.0039822,5.14288372 13.826933,4.94069767 Z M17.2884084,6.3122093 L16.659392,5.2307907 C16.9557854,4.68153488 16.952015,4.02255814 16.952015,3.18255814 C16.952015,2.10113953 16.9607035,1.31876744 16.3234904,0.685674419 C15.8808674,0.246139535 15.3407035,0 14.6236543,0 C13.9064412,0 13.3575887,0.246139535 12.9149658,0.685674419 C12.2775887,1.31876744 12.2951297,2.10113953 12.2951297,3.18255814 C12.2951297,4.26381395 12.2775887,5.04618605 12.9149658,5.67927907 C13.3575887,6.11881395 13.9064412,6.36495349 14.6236543,6.36495349 C14.8148018,6.36495349 14.9925068,6.34623256 15.1600477,6.3122093 L17.2884084,6.3122093 L17.2884084,6.3122093 Z" id="Fill-1" fill="#848681"></path>
                <g id="Group-5">
                    <mask id="mask-2" fill="white">
                        <use xlink:href="#path-1"></use>
                    </mask>
                    <g id="Clip-3"></g>
                    <polygon id="Fill-2" fill="#848681" mask="url(#mask-2)" points="31.5988525 6.45644186 32.8139344 6.45644186 32.8139344 0.199418605 31.5988525 0.199418605"></polygon>
                    <path d="M2.30180328,6.51162791 C1.3457377,6.51162791 0.619672131,6.30944186 0,5.68530233 L0.796721311,4.89397674 C1.1952459,5.28955814 1.7352459,5.4214186 2.3195082,5.4214186 C3.04540984,5.4214186 3.43508197,5.14906977 3.43508197,4.64783721 C3.43508197,4.42806977 3.37311475,4.24346512 3.24032787,4.12039535 C3.11622951,4.00611628 2.97459016,3.9445814 2.68245902,3.90062791 L1.92114754,3.79513953 C1.38114754,3.71602326 0.982622951,3.549 0.699344262,3.27648837 C0.398360656,2.97760465 0.247868852,2.57306977 0.247868852,2.04562791 C0.247868852,0.929209302 1.08016393,0.146674419 2.44344262,0.146674419 C3.31098361,0.146674419 3.93967213,0.357651163 4.47967213,0.876465116 L3.70065574,1.64125581 C3.30229508,1.26325581 2.82409836,1.21051163 2.40803279,1.21051163 C1.75295082,1.21051163 1.4342623,1.57093023 1.4342623,2.00167442 C1.4342623,2.15990698 1.48737705,2.32693023 1.62016393,2.45 C1.74409836,2.56427907 1.94770492,2.66113953 2.20442623,2.69613953 L2.94803279,2.80162791 C3.52360656,2.88074419 3.88655738,3.03897674 4.15213115,3.28527907 C4.48852459,3.60174419 4.63901639,4.05886047 4.63901639,4.61267442 C4.63901639,5.82595349 3.62098361,6.51162791 2.30180328,6.51162791" id="Fill-4" fill="#848681" mask="url(#mask-2)"></path>
                </g>
                <polyline id="Fill-6" fill="#848681" points="6.39344262 6.42225581 6.39344262 0.162790698 10.5455738 0.162790698 10.5455738 1.253 7.62409836 1.253 7.62409836 2.72104651 10.1116393 2.72104651 10.1116393 3.81125581 7.62409836 3.81125581 7.62409836 5.33204651 10.5455738 5.33204651 10.5455738 6.42225581 6.39344262 6.42225581"></polyline>
                <path d="M21.0080328,6.475 C19.7155738,6.475 18.6885246,5.60472093 18.6885246,4.27716279 L18.6885246,0.162790698 L19.9191803,0.162790698 L19.9191803,4.2332093 C19.9191803,4.9542093 20.3440984,5.3847907 21.0080328,5.3847907 C21.6719672,5.3847907 22.1057377,4.9542093 22.1057377,4.2332093 L22.1057377,0.162790698 L23.327541,0.162790698 L23.327541,4.27716279 C23.327541,5.60472093 22.3004918,6.475 21.0080328,6.475" id="Fill-7" fill="#848681"></path>
                <path d="M28.3621802,1.42425581 C28.185131,1.22206977 27.9107048,1.0902093 27.5743113,1.0902093 C27.2379179,1.0902093 26.9546392,1.22206977 26.77759,1.42425581 C26.5384097,1.68797674 26.4764425,1.97806977 26.4764425,3.18255814 C26.4764425,4.38688372 26.5384097,4.67697674 26.77759,4.94069767 C26.9546392,5.14288372 27.2379179,5.27474419 27.5743113,5.27474419 C27.9107048,5.27474419 28.185131,5.14288372 28.3621802,4.94069767 C28.6013605,4.67697674 28.6720163,4.38688372 28.6720163,3.18255814 C28.6720163,1.97806977 28.6013605,1.68797674 28.3621802,1.42425581 Z M29.2741474,5.67927907 C28.8315245,6.11881395 28.2913605,6.36495349 27.5743113,6.36495349 C26.8572622,6.36495349 26.3084097,6.11881395 25.8656228,5.67927907 C25.2282458,5.04618605 25.2459507,4.26381395 25.2459507,3.18255814 C25.2459507,2.10113953 25.2282458,1.31876744 25.8656228,0.685674419 C26.3084097,0.246139535 26.8572622,0 27.5743113,0 C28.2913605,0 28.8315245,0.246139535 29.2741474,0.685674419 C29.9115245,1.31876744 29.902672,2.10113953 29.902672,3.18255814 C29.902672,4.26381395 29.9115245,5.04618605 29.2741474,5.67927907 L29.2741474,5.67927907 Z" id="Fill-8" fill="#848681"></path>
                <path d="M37.232623,2.009 L36.4357377,4.28595349 L38.0027869,4.28595349 L37.232623,2.009 Z M38.7021311,6.42225581 L38.3303279,5.31462791 L36.0904918,5.31462791 L35.7098361,6.42225581 L34.4262295,6.42225581 L36.7191803,0.162790698 L37.6840984,0.162790698 L39.9859016,6.42225581 L38.7021311,6.42225581 L38.7021311,6.42225581 Z" id="Fill-9" fill="#848681"></path>
            </g>
            <polygon id="Fill-10" fill="#4BAF53" points="29.387 9.838 39 9.838 39 0.225 29.387 0.225"></polygon>
            <polyline id="Fill-11" fill="#4BAF53" points="5.356 30.471 5.356 0.225 0.55 0.225 0.55 35.277 5.356 30.471"></polyline>
            <polyline id="Fill-12" fill="#4BAF53" points="8.754 33.869 3.948 38.676 39 38.676 39 33.869 8.754 33.869"></polyline>
            <polyline id="Fill-13" fill="#4BAF53" points="14.968 20.858 14.968 0.225 10.162 0.225 10.162 25.665 14.968 20.858"></polyline>
            <polyline id="Fill-14" fill="#4BAF53" points="18.367 24.257 13.561 29.063 39 29.063 39 24.257 18.367 24.257"></polyline>
            <polyline id="Fill-15" fill="#4BAF53" points="24.581 11.246 24.581 0.225 19.775 0.225 19.775 16.052 24.581 11.246"></polyline>
            <polyline id="Fill-16" fill="#4BAF53" points="27.98 14.644 23.173 19.451 39 19.451 39 14.644 27.98 14.644"></polyline>
        </g>
    </g>
</svg>
